!!!!SEGMENT:Ishibashi.krn
!!!OTL:石橋
!!!OPR:Eiga Banso Kyokusyu,jidai-geki,kouhen
!!!YOY:1928
!!!ONB:Dairantou
**kern
*clefG2
*k[f#]
*G:
*M2/4
=1
16aaLL
16aa
16bb
16bbJJ
16aaLL
16aa
16bb
16aaJJ
=2
16bLL
16bb
16bb
16bbJJ
16bbLL
16bbJJ
8r
=3
16aaLL
16aa
16bb
16bbJJ
16aaLL
16aa
16bb
16aaJJ
=4
16bLL
16bb
16bb
16bbJJ
16bbLL
16bbJJ
8r
=5
*8va
16dddLL
16ddd
16eee
16dddJJ
16bbLL
16bb
16bb
16bbJJ
=6
16eeeLL
16eee
16bb
16bbJJ
16bbLL
16bb
16bb
16bbJJ
=7
16dddLL
16ddd
16eee
16dddJJ
16bbLL
16bb
16bb
16bbJJ
=8
16eeeLL
16eee
16bb
16bbJJ
16bbLL
16bb
16bb
16bbJJ
*X8va
=9
16aaLL
!LO:TX:a:t=loco
16aa
16bb
16aaJJ
16ff#LL
16ff#
16ff#
16ff#JJ
=10
16bbLL
16aa
16ff#
16ff#JJ
16ff#LL
16ff#
16ff#
16ff#JJ
=11
16aaLL
16aa
16bb
16aaJJ
16ff#LL
16ff#
16ff#
16ff#JJ
=12
16bbLL
16aa
16ff#
16ff#JJ
16ff#LL
16ff#
16ff#
16ff#JJ
=13
16eeLL
16ee
16ff#
16eeJJ
16ff#LL
16ee
16dd
16ddJJ
=14
16eeLL
16b
16b
16aJJ
8fnL
8eJ
=15
16.aLL
32bk
16b
16bJJ
16bLL
16b
16b
16bJJ
=16
16.aLL
32bk
16b
16bJJ
16bLL
16b
16b
16bJJ
=17
8aaL
16ffnL
16ffJJ
8eeL
8ddJ
=18
16eLL
16ee
16ee
16eeJJ
8bL
8bJ
=19
*8va
16aaLL
16aa
16aa
16aaJJ
16aaLL
16aa
16aa
16aaJJ
=20
16bbLL
16bb
16bb
16aaJJ
8bbL
8cccJ
=21
8eeeL
16cccL
16cccJJ
8bbL
16cccL
16bbJJ
=22
8aaL
16bbL
16aaJJ
8ff#
8r
*X8va
=23
!LO:TX:a:t=loco
16aaLL
16aa
16aa
16aaJJ
16bbLL
16aaJ
8ffnJ
=24
16eeLL
16ee
16ee
16eeJJ
16ff#XLL
16eeJ
8ddJ
=25
16ddLL
16dd
16dd
16ddJJ
16ddLL
16dd
16dd
16ddJJ
=26
8ddL
8eeJ
4r
=27
16ggLL
16gg
16gg
16ggJJ
16ff#LL
16ff#
16gg
16ff#JJ
=28
16eeLL
16ee
16ee
16eeJJ
16ff#LL
16eeJ
8ccJ
=29
16eeLL
16ff#
16c
16ccJJ
8ccL
8bJ
=30
16ALL
16a
16a
16aJJ
16BLL
16b
16b
16bJJ
=31
16eLL
16ee
16ee
16eeJJ
8bL
8bJ
=32
16dLL
16dd
16d
16ddJJ
16dLL
16dd
16d
16ddJJ
=33
16dLL
16dd
16d
16ddJJ
16dLL
16dd
16d
16ddJJ
==
*-
!!!ENC: Yukiko Yoden
!!!END: 2023/06/10
